X:1
T: The Bees' Wings Hornpipe
C:
R:Reel
Q:232
K:A
M:4/4
L:1/8
|:EG|Ae cA Gd BG|Ec AE CA EC|DF Bd CE Ac|((3BcB) ((3GAF) E2FG|
Ae ca Ge Bg|DA Fd CA Ec|DF Bd cB AG|A2a2 A2:|
|:ed|cA ec ae cA|BG eB ge BG|FD AD dB cA|((3BcB) ((3AGF) E2FG|
Ae ca Ge Bg|DA Fd CA Ec|DF Bd cB AG|A2a2 A2:|
